X:1
T:James Gibb editions
T:Matona mia cara - Lasso
T:#
%%score [ 1 2 3 4 ]
L:1/8
Q:1/4=180
M:4/4
K:F
V:1 treble nm="Soprano" snm="S"
V:2 treble nm="Alto" snm="A"
V:3 treble-8 nm="Tenor" snm="T"
V:4 bass nm="Bass" snm="B"
V:1
"^Orlando di Lasso\n(1532-94)""^Matona mia cara" F4 F2 F2 | G4 F4 | E4 E4 | F4 B2 A2 | G2 (F4 E2) | %5
w: Ma- to- na|mi- a|ca- ra,|mi fol- le-|re can\- *|
 F8 | A4 A2 A2 | B4 A4 | G4 G4 | B4 B2 A2 |[M:4/4] G2 (F4 E2) | F4 z2 A2 | B2 B2 A2 G2 | ^F4 F4 | %14
w: zon,|Ma- to- na|mi- a|ca- ra|mi fol- le-|re can\- *|zon, can-|tar sot- to fi-|ne- stra,|
 G4 A4 | =B2 c4 B2 | c4 |: A2 A2 A4 | GFGF D2 F2- | F2 E2 F4 :| z2 E2 E2 E2 | F2 E2 D4 | E4 z2 F2 | %23
w: Lan- tze|buon com- pa-|gnon.|Don, don, don,|di- ri- di- ri, don, don,|* don, don.|Ti pre- go|m'a- scol- ta-|re, che|
 G2 G2 F4- | F2 F2 F4 | z2 E2 E2 E2 | F2 E2 D4 | E4 z2 F2 | G2 G2 F4- | F2 F2 F4 | z2 F2 G2 G2 | %31
w: mi can- tar|* de bon,|Ti pre- go|m'a- scol- ta-|re, che|mi can- tar|* de bon.|E mi ti|
 A2 A2 G4- | G2 G2 A4 | F2 E2 G4 x2 | G4 G4 |: A2 A2 A4 | GFGF |[M:4/4] D2 F2- F2 E2 | F4 :| %39
w: fol- ler be\-|* ne co-|me gre- co~e|ca- pon.|Don, don, don,|di- ri- di- ri,|don, don, * don,|don.|
 z2 F2 F2 G2 | A2 B2 A4 | A2 A2 B4 | z2 A2 B4 | A4 F4 | G4 A4 | z2 F2 F2 G2 | A2 B2 A4 | A2 A2 B4 | %48
w: Co- m'an- dar|a le caz-|ze, caz- zar,|caz- zar|con le|fal- con,|Co- m'an- dar|a le caz-|ze, caz- zar,|
 z2 A2 B4 | A4 F4 | G4 A4 | z2 c2 F2 G2 | A2 F2 G4 | F4 A4 | A2 A2 c4 | =B4 c4 |: A2 A2 A4 | %57
w: caz- zar|con le|fal- con,|Mi ti por-|tar bec- caz-|ze, gras-|se co- me|ro- gnon.|Don, don, don,|
 GFGF D2 F2- | F2 E2 F4 :| z2 E2 F2 F2 | G2 G2 A4 | A4 d4 | c2 B2 (A2 G2- | G2) ^F2 G4 | %64
w: di- ri- di- ri, don, don,|* don, don.|Se mi non|sa- per di-|re tan-|te bel- le *|* ra- son,|
 z2 E2 F2 F2 | G2 G2 A4 | A4 d4 | c2 B2 (A2 G2- | G2) ^F2 G4 | z2 ^F2 F4 | G2 A4 G2 | G4 ^F4 | %72
w: Se mi non|sa- per di-|re tan-|te bel- le *|* ra- son,|Pe- trar-|cha mi non|sa- per,|
 z2 G2 A4 | =F4 F4- | F2 F2 E4 |: F2 F2 A4 | GFGF D2 F2- | F2 E2 F4 :| z2 D2 D4- | D2 D2 E2 F2 | %80
w: ne fon-|te d'He\-|* li- con.|Don, don, don,|di- ri- di- ri, don, don,|* don, don.|Se ti|* mi fol- ler|
 F4 F4- | F4 z2 G2 | F2 F2 D4 | E4 F4 | z2 D2 D4- | D2 D2 E2 F2 | F4 F4- | F4 z2 G2 | F2 F2 D4 | %89
w: be- ne|* mi|non es- ser|pol- tron,|Se ti|* mi fol- ler|be- ne|* mi|non es- ser|
 E4 F4 | z2 D2 _E2 D2 | _E2 D2 G4 | ^F4 z2 G2 | B4 z2 B2 | d4 c2 c2- | c2 =B2 c4 | A2 A2 A4 | %97
w: pol- tron,|Mi fic- car|tut- ta not-|te, ur-|tar, ur-|tar co- me|* mon- ton.|Don, don, don,|
 GFGF D2 F2- | F2 E2 F4 | A2 A2 A4 | GFGF D2 F2- | F2 E2 F4 |[Q:1/4=176] D4[Q:1/4=170] C4 | %103
w: di- ri- di- ri, don, don,|* don, don,|Don, don, don,|di- ri- di- ri, don, don,|* don, don,|don, don,|
[Q:1/4=164] D4[Q:1/4=158] C4 |[Q:1/4=152] D4[Q:1/4=150] C8 |] %105
w: don, don,|don, don.|
V:2
 C4 C2 C2 | _E4 C4 | C4 C4 | D4 G2 E2 | D4 C4 | C8 | F4 F2 F2 | G4 F4 | E4 E4 | F4 G2 E2 | %10
w: Ma- to- na|mi- a|ca- ra,|mi fol- le-|re can-|zon,|Ma- to- na|mi- a|ca- ra|mi fol- le-|
[M:4/4] D4 C4 | C4 z2 F2 | F2 F2 F2 E2 | D4 D2 D2- | D2 E2 F2 E2 | G8 | E4 |: F2 F2 F4 | %18
w: re can-|zon, can-|tar sot- to fi-|ne- stra, Lan\-|* tze buon com-|pa-|gnon.|Don, don, don,|
 EDCC B,2 D2 | C4 C4 :| z2 C2 C2 C2 | D2 C2 =B,4 | C2 C2 D4 | _E4 D4 | C4 D4 | z2 C2 C2 C2 | %26
w: di- ri- di- ri, don, don,|don, don.|Ti pre- go|m'a- scol- ta-|re, che mi|can- tar|de bon,|Ti pre- go|
 D2 C2 =B,4 | C2 C2 D4 | _E4 D4 | C4 D4 | z2 C2 E2 E2 | F2 F2 D4 | E4 F4 | C4 D2 E2 x2 | D4 E4 |: %35
w: m'a- scol- ta-|re, che mi|can- tar|de bon.|E mi ti|fol- ler be-|ne co-|me gre- co~e|ca- pon.|
 F2 F2 F4 | EDCC |[M:4/4] B,2 D2 C4 | C4 :| z2 C2 D2 E2 | F2 F2 F4 | F2 F2 G4 | z2 F2 G4 | %43
w: Don, don, don,|di- ri- di- ri,|don, don, don,|don.|Co- m'an- dar|a le caz-|ze, caz- zar,|caz- zar|
 F4- F2 D2- | D2 E2 F4 | z2 C2 D2 E2 | F2 F2 F4 | F2 F2 G4 | z2 F2 G4 | F6 D2- | D2 E2 F4 | %51
w: con * le|* fal- con,|Co- m'an- dar|a le caz-|ze, caz- zar,|caz- zar|con le|* fal- con,|
 z2 C2 D2 B,2 | C2 D2 _E4 | D4 F4 | F2 E2 A4 | G4 E4 |: F2 F2 F4 | EDCC B,2 D2 | C4 C4 :| %59
w: Mi ti por-|tar bec- caz-|ze, gras-|se co- me|ro- gnon.|Don, don, don,|di- ri- di- ri, don, don,|don, don.|
 z2 C2 C2 D2 | _E2 D2 F4 | F4 F4 | F2 F4 E2 | D4 =B,4 | z2 C2 C2 D2 | _E2 D2 F4 | F4 F4 | %67
w: Se mi non|sa- per di-|re tan-|te bel- le|ra- son,|* mi non|sa- per di-|re tan-|
 F2 F4 E2 | D4 =B,4 | z2 D2 D4 | E2 F4 D2 | C4 D4 | E6 F2 | D4 C4 | =B,4 C4 |: C2 C2 F4 | %76
w: te bel- le|ra- son,|Pe- trar-|cha mi non|sa- per,|ne fon-|te d'He-|li- con.|Don, don, don,|
 EDCC B,2 D2 | C4 C4 :| z2 B,2 B,4- | B,2 A,2 C2 D2 | C4 D4- | D2 D2 G,4 | A,4 =B,4 | C4 C4 | %84
w: di- ri- di- ri, don, don,|don, don.|Se ti|* mi fol- ler|be- ne|* mi non|es- ser|pol- tron,|
 z2 B,2 B,4- | B,2 A,2 C2 D2 | C4 D4- | D2 D2 G,4 | A,4 =B,4 | C4 C4 | z2 B,2 B,2 B,2 | %91
w: Se ti|* mi fol- ler|be- ne|* mi non|es- ser|pol- tron,|Mi fic- car|
 B,4 B,2 C2 | D2 D2 _E4 | z2 D2 G4 | z2 F2 A2 A2 | G2 G2 E4 | F2 F2 F4 | EDCC B,2 D2 | C4 C4 | %99
w: tut- ta not-|te, ur- tar,|ur- tar,|ur- tar co-|me mon- ton.|Don, don, don,|di- ri- di- ri, don, don,|don, don,|
 F2 F2 F4 | EDCC B,2 D2 | C4 A,4 | B,4 A,4 | B,4 A,4 | B,4 A,8 |] %105
w: Don, don, don,|di- ri- di- ri, don, don,|don, don,|don, don,|don, don,|don, don.|
V:3
 A4 A2 A2 | B4 A4 | G4 G4 | B4 d2 c2 | B4 G4 | A8 | c4 c2 c2 | _e4 c4 | c4 c4 | d6 c2 | %10
w: Ma- to- na|mi- a|ca- ra,|mi fol- le-|re can-|zon,|Ma- to- na|mi- a|ca- ra|mi fol-|
[M:4/4][K:treble-8] B4 A2 G2 | A4 z2 c2 | d2 d2 c2 c2 | A4 A4 | =B4 c4 | d2 _e2 d4 | c4 |: %17
w: le- re can-|zon, can-|tar sot- to fi-|ne- stra,|Lan- tze|buon com- pa-|gnon.|
 c2 c2 c4 | cAGA F2 B2 | A2 G2 A4 :| z2 G2 G2 G2 | B2 G2 G4 | G2 G2 B4 | B4 B4 | A4 B4 | %25
w: Don, don, don,|di- ri- di- ri, don, don,|don, don, don.|Ti pre- go|m'a- scol- ta-|re, che mi|can- tar|de bon,|
 z2 G2 G2 G2 | B2 G2 G4 | G2 G2 B4 | B4 B4 | A4 B4 | z2 A2 c2 c2 | c2 c2 =B4 | c2 c2- c2 c2 | %33
w: Ti pre- go|m'a- scol- ta-|re, che mi|can- tar|de bon.|E mi ti|fol- ler be-|ne co\- * me|
 A4 =B2 (c4 | =B2) c4 x2 |: c2 c2 c4 | cAGA |[M:4/4][K:treble-8] F2 B2 A2 G2 | A4 :| z2 A2 A2 c2 | %40
w: gre- co~e ca\-|* pon.|Don, don, don,|di- ri- di- ri,|don, don, don, don,|don.|Co- m'an- dar|
 c2 d2 c4 | c4 z2 _e2 | c4 z2 _e2 | c2 c2 d4 | B4 c4 | z2 A2 A2 c2 | c2 d2 c4 | c4 z2 _e2 | %48
w: a le caz-|ze, caz-|zar, caz-|zar con le|fal- con,|Co- m'an- dar|a le caz-|ze, caz-|
 c4 z2 _e2 | c2 c2 d4 | B4 c4 | z2 A2 B2 G2 | F2 B2 _E4 | B4 c4 | c2 c2 f4 | d4 c4 |: c2 c2 c4 | %57
w: zar, caz-|zar con le|fal- con,|Mi ti por-|tar bec- caz-|ze, gras-|se co- me|ro- gnon.|Don, don, don,|
 cAGA F2 B2 | A2 G2 A4 :| z2 G2 A2 A2 | B2 B2 c4 | c4 B4 | c2 d2 c4 | A4 G4 | z2 G2 A2 A2 | %65
w: di- ri- di- ri, don, don,|don, don, don.|Se mi non|sa- per di-|re tan-|te bel- le|ra- son,|Se mi non|
 B2 B2 c4 | c4 B4 | c2 d2 c4 | A4 G4 | z2 A2 A4 | c2 c4 B2 | G4 A4 | c4 c4 | B4 A4 | F4 G4 |: %75
w: sa- per di-|re tan-|te bel- le|ra- son,|Pe- trar-|cha mi non|sa- per,|ne fon-|te d'He-|li- con.|
 A2 A2 c4 | cAGA F2 B2 | A2 G2 A4 :| z2 F2 F4 | F2 F2 G2 (B2- | B2 A2) B4- | B2 A2 c4- | %82
w: Don, don, don,|di- ri- di- ri, don, don,|don, don, don.|Se ti|mi fol- ler be\-|* * ne|* mi non|
 c2 d4 G2- | G2 G2 A4 | z2 F2 F4 | F2 F2 G2 (B2- | B2 A2) B4- | B2 A2 c4- | c2 d4 G2- | G2 G2 A4 | %90
w: * es- ser|* pol- tron,|Se ti|mi fol- ler be\-|* * ne|* mi non|* es- ser|* pol- tron,|
 z2 F2 G2 F2 | G2 F2 G4 | A2 A2 c4 | z2 B2 _e4 | z2 B2 f2 f2 | e2 d2 c4 | c2 c2 c4 | cAGA F2 B2 | %98
w: Mi fic- car|tut- ta not-|te, ur- tar,|ur- tar,|ur- tar co-|me mon- ton.|Don, don, don,|di- ri- di- ri, don, don,|
 A2 G2 A4 | c2 c2 c4 | cAGA F2 B2 | A2 G2 F4- | F4 F4- | F4 F4- | F4 F8 |] %105
w: don, don, don,|Don, don, don,|di- ri- di- ri, don, don,|don, don, don,|* don,|* don,|* don.|
V:4
 F,4 F,2 F,2 | _E,4 F,4 | C,4 C,4 | B,,4 G,,2 A,,2 | B,,4 C,4 | F,,8 | F,4 F,2 F,2 | _E,4 F,4 | %8
w: Ma- to- na|mi- a|ca- ra,|mi fol- le-|re can-|zon,|Ma- to- na|mi- a|
 C,4 C,4 | B,,4 G,,2 A,,2 |[M:4/4] B,,4 C,4 | F,,4 z2 F,2 | B,,2 B,,2 F,2 C,2 | D,4 D,4 | %14
w: ca- ra|mi fol- le-|re can-|zon, can-|tar sot- to fi-|ne- stra,|
 G,4 F,2 A,2 | G,4 G,4 | C,4 |: F,2 F,2 F,4 | C,D,E,F, B,,4 | C,4 F,,4 :| z2 C,2 C,2 C,2 | %21
w: Lan- tze buon|com- pa-|gnon.|Don, don, don,|di- ri- di- ri, don,|don, don.|Ti pre- go|
 B,,2 C,2 G,,4 | C,4 z2 B,,2 | _E,2 E,2 B,,4 | F,4 B,,4 | z2 C,2 C,2 C,2 | B,,2 C,2 G,,4 | %27
w: m'a- scol- ta-|re, che|mi can- tar|de bon,|Ti pre- go|m'a- scol- ta-|
 C,4 z2 B,,2 | _E,2 E,2 B,,4 | F,4 B,,4 | z2 F,2 C,2 C,2 | F,2 F,2 G,4 | C,4 F,4 | F,2 A,2 G,4 x2 | %34
w: re, che|mi can- tar|de bon.|E mi ti|fol- ler be-|ne co-|me gre- co~e|
 G,4 C,4 |: F,2 F,2 F,4 | C,D,E,F, |[M:4/4] B,,4 C,4 | F,,4 :| z2 F,2 D,2 C,2 | F,2 B,,2 F,4 | %41
w: ca- pon.|Don, don, don,|di- ri- di- ri,|don, don,|don.|Co- m'an- dar|a le caz-|
 F,4 z2 _E,2 | F,4 z2 _E,2 | F,2 F,2 B,4 | G,4 F,4 | z2 F,2 D,2 C,2 | F,2 B,,2 F,4 | F,4 z2 _E,2 | %48
w: ze, caz-|zar, caz-|zar con le|fal- con,|Co- m'an- dar|a le caz-|ze, caz-|
 F,4 z2 _E,2 | F,2 F,2 B,4 | G,4 F,4- | F,4 z4 | z8 | z4 F,4 | F,2 A,2 F,4 | G,4 C,4 |: %56
w: zar, caz-|zar con le|fal- con,|||gras-|se co- me|ro- gnon.|
 F,2 F,2 F,4 | C,D,E,F, B,,4 | C,4 F,,4 :| z2 C,2 F,2 F,2 | _E,2 G,2 F,4 | F,4 B,,4 | %62
w: Don, don, don,|di- ri- di- ri, don,|don, don.|Se mi non|sa- per di-|re tan-|
 A,,2 B,,2 C,4 | D,4 G,,4 | z2 C,2 F,2 F,2 | _E,2 G,2 F,4 | F,4 B,,4 | A,,2 B,,2 C,4 | D,4 G,,4 | %69
w: te bel- le|ra- son,|Se mi non|sa- per di-|re tan-|te bel- le|ra- son,|
 z2 D,2 D,4 | C,2 F,4 G,2 | _E,4 D,4 | C,4 A,,4 | B,,4 F,4 | D,4 C,4 |: F,2 F,2 F,4 | %76
w: Pe- trar-|cha mi non|sa- per,|ne fon-|te d'He-|li- con.|Don, don, don,|
 C,D,E,F, B,,4 | C,4 F,,4 :| z2 B,,2 B,,4 | D,4 C,2 B,,2 | F,4 B,,4 | D,4 E,4 | F,4 G,4 | C,4 F,4 | %84
w: di- ri- di- ri, don,|don, don.|Se ti|mi fol- ler|be- ne|mi non|es- ser|pol- tron,|
 z2 B,,2 B,,4 | D,4 C,2 B,,2 | F,4 B,,4 | D,4 E,4 | F,4 G,4 | C,4 F,4 | z2 B,,2 _E,2 B,,2 | %91
w: Se ti|mi fol- ler|be- ne|mi non|es- ser|pol- tron,|Mi fic- car|
 _E,2 B,,2 E,4 | D,4 z2 C,2 | G,4 z2 _E,2 | B,4 F,4 | G,2 G,2 C,4 | F,2 F,2 F,4 | C,D,E,F, B,,4 | %98
w: tut- ta not-|te, ur-|tar, ur-|tar co-|me mon- ton.|Don, don, don,|di- ri- di- ri, don,|
 C,4 F,,4 | F,2 F,2 F,4 | C,D,E,F, B,,4 | C,4 F,,4 | B,,2 B,,2 F,,4 | B,,C,D,E, F,2 F,,2 | %104
w: don, don,|Don, don, don,|di- ri- di- ri, don,|don, don,|don, don, don,|di- ri- di- ri, don, don,|
 B,,4 F,,8 |] %105
w: don, don.|

